X: 119
T: Song of the Strong Heart Society (d)
C: Teton Sioux band 1911-1914
N: Derived from sioux119.krn
O: South Dakota, U.S.A.
N: Teton Sioux Music by Frances Densmore, 1918
Z: transcribed to **kern format by Craig Sapp
L: 1/16
M: 2/4
Q: 1/4=58
K: Eb clef=bass
%%linebreak <none>
G G2 G [I:setbarnb 1]| 
G2< G2E4 | 
C4C C2 E | 
C2< C2G,4 ||  
[M:3/4]E,4A,2< A,2 A, A,2 G, | 
E,2> E,2E,8 ||  
[M:2/4]E,8 | 
C2< G2 G3 G | 
G2< G2E4 | 
C4C C2 E | 
C2< C2G,4 ||  
[M:3/4]E,4A,2< A,2 A, A,2 G, | 
E,2> E,2E,8 ||  
[M:2/4]E,8 |]  



